media/logos/Geonovum.svg

<?xml version="1.0" encoding="UTF-8" standalone="no"?>
<!-- Created with Inkscape (http://www.inkscape.org/) -->

<svg
   xmlns:dc="http://purl.org/dc/elements/1.1/"
   xmlns:cc="http://creativecommons.org/ns#"
   xmlns:rdf="http://www.w3.org/1999/02/22-rdf-syntax-ns#"
   xmlns:svg="http://www.w3.org/2000/svg"
   xmlns="http://www.w3.org/2000/svg"
   xmlns:sodipodi="http://sodipodi.sourceforge.net/DTD/sodipodi-0.dtd"
   xmlns:inkscape="http://www.inkscape.org/namespaces/inkscape"
   width="120.90505mm"
   height="61.452126mm"
   viewBox="0 0 120.90505 61.452126"
   version="1.1"
   id="svg8"
   inkscape:version="0.92.1 r15371"
   sodipodi:docname="Geonovum_logo.svg">
  <defs
     id="defs2" />
  <sodipodi:namedview
     id="base"
     pagecolor="#ffffff"
     bordercolor="#666666"
     borderopacity="1.0"
     inkscape:pageopacity="0.0"
     inkscape:pageshadow="2"
     inkscape:zoom="0.66537102"
     inkscape:cx="-80.138207"
     inkscape:cy="250.36261"
     inkscape:document-units="mm"
     inkscape:current-layer="layer1"
     showgrid="false"
     inkscape:window-width="1366"
     inkscape:window-height="705"
     inkscape:window-x="-8"
     inkscape:window-y="-8"
     inkscape:window-maximized="1"
     fit-margin-top="0"
     fit-margin-left="0"
     fit-margin-right="0"
     fit-margin-bottom="0" />
  <metadata
     id="metadata5">
    <rdf:RDF>
      <cc:Work
         rdf:about="">
        <dc:format>image/svg+xml</dc:format>
        <dc:type
           rdf:resource="http://purl.org/dc/dcmitype/StillImage" />
        <dc:title></dc:title>
      </cc:Work>
    </rdf:RDF>
  </metadata>
  <g
     inkscape:label="Laag 1"
     inkscape:groupmode="layer"
     id="layer1"
     transform="translate(-72.844758,-82.941436)">
    <g
       transform="matrix(0.35277777,0,0,-0.35277777,72.844758,144.39356)"
       inkscape:label="ink_ext_XXXXXX"
       id="g18">
      <g
         transform="scale(0.1)"
         id="g20">
        <path
           inkscape:connector-curvature="0"
           id="path22"
           style="fill:#80cc28;fill-opacity:1;fill-rule:nonzero;stroke:none"
           d="m 1159.51,608.082 v 255.07 L 904.449,608.082 Z M 147.094,1365.4 402.207,1620.51 280.766,1741.95 H 280.77 25.6484 v -255.12 l 0.0079,0.01 z M 904.402,1741.95 25.6484,863.152 V 608.082 H 280.77 l -0.004,0.008 311.824,311.812 121.437,-121.449 255.118,255.117 -121.45,121.46 311.815,311.8 v 255.12 H 904.402" />
        <path
           inkscape:connector-curvature="0"
           id="path24"
           style="fill:#0f80cc;fill-opacity:1;fill-rule:nonzero;stroke:none"
           d="m 2791.36,1741.95 h -497.99 l 249,-249 z m 380.76,0 -878.76,-878.798 v -255.07 h 255.12 l 439.38,439.378 439.36,-439.378 h 0.01 V 1741.95 Z m -878.76,0 v -0.01 l 0.01,0.01 z" />
        <path
           inkscape:connector-curvature="0"
           id="path26"
           style="fill:#80cc28;fill-opacity:1;fill-rule:nonzero;stroke:none"
           d="M 155.621,0 C 52.082,0 0,53.3203 0,177.32 c 0,132.059 75.6406,190.961 168.023,190.961 52.7,0 92.375,-21.082 122.137,-52.082 l -29.14,-36.578 c -26.04,14.879 -54.559,24.18 -81.84,24.18 -55.801,0 -94.8597,-40.922 -94.8597,-114.699 0,-96.7309 36.5777,-124.6332 84.3247,-124.6332 21.078,0 38.433,5.5898 48.359,12.4101 v 81.2231 h -50.223 v 53.32 H 297.602 V 47.7383 C 260.398,17.3594 210.801,0 155.621,0" />
        <path
           inkscape:connector-curvature="0"
           id="path28"
           style="fill:#80cc28;fill-opacity:1;fill-rule:nonzero;stroke:none"
           d="M 417.25,6.82031 V 361.461 h 219.484 v -63.25 H 499.711 V 217 H 614.414 V 157.48 H 499.711 V 71.3008 H 639.215 V 6.82031 H 417.25" />
        <path
           inkscape:connector-curvature="0"
           id="path30"
           style="fill:#80cc28;fill-opacity:1;fill-rule:nonzero;stroke:none"
           d="m 890.945,305.039 c -48.355,0 -83.695,-31.008 -83.695,-114.078 0,-95.4805 32.238,-127.1016 88.039,-127.1016 49.598,0 84.941,31 84.941,116.5626 0,91.758 -32.242,124.617 -89.285,124.617 z M 889.094,0 C 783.07,0 719.828,45.8789 719.828,179.801 c 0,129.578 73.781,188.48 178.563,188.48 107.879,0 169.259,-49.601 169.259,-176.699 C 1067.65,50.2188 985.813,0 889.094,0" />
        <path
           inkscape:connector-curvature="0"
           id="path32"
           style="fill:#797677;fill-opacity:1;fill-rule:nonzero;stroke:none"
           d="M 1397.75,6.82031 1240.27,256.68 V 6.82031 h -68.82 V 361.461 h 102.92 l 143.22,-218.859 v 218.859 h 68.2 V 6.82031 h -88.04" />
        <path
           inkscape:connector-curvature="0"
           id="path34"
           style="fill:#797677;fill-opacity:1;fill-rule:nonzero;stroke:none"
           d="m 1788.96,305.039 c -48.36,0 -83.69,-31.008 -83.69,-114.078 0,-95.4805 32.23,-127.1016 88.03,-127.1016 49.61,0 84.94,31 84.94,116.5626 0,91.758 -32.24,124.617 -89.28,124.617 z M 1787.1,0 c -106.02,0 -169.26,45.8789 -169.26,179.801 0,129.578 73.78,188.48 178.56,188.48 107.88,0 169.26,-49.601 169.26,-176.699 C 1965.66,50.2188 1883.82,0 1787.1,0" />
        <path
           inkscape:connector-curvature="0"
           id="path36"
           style="fill:#797677;fill-opacity:1;fill-rule:nonzero;stroke:none"
           d="M 2274.44,6.82031 H 2173.37 C 2121.3,128.961 2085.95,241.801 2056.21,361.461 h 91.75 c 19.84,-91.141 47.74,-183.52 82.46,-280.8594 h 0.62 c 32.24,93.0004 55.8,186.0004 74.4,280.8594 h 81.84 C 2360.62,242.422 2324.04,121.52 2274.44,6.82031" />
        <path
           inkscape:connector-curvature="0"
           id="path38"
           style="fill:#797677;fill-opacity:1;fill-rule:nonzero;stroke:none"
           d="m 2653.88,0 c -98.58,0 -151.29,41.5313 -151.29,138.879 v 222.582 h 82.46 V 148.18 c 0,-63.2386 24.18,-88.6605 75.65,-88.6605 47.12,0 75.64,22.3203 75.64,83.6915 v 218.25 h 81.21 V 148.18 C 2817.55,43.3984 2749.36,0 2653.88,0" />
        <path
           inkscape:connector-curvature="0"
           id="path40"
           style="fill:#797677;fill-opacity:1;fill-rule:nonzero;stroke:none"
           d="m 3328.43,6.82031 c -1.86,93.62069 -9.92,185.98869 -19.22,265.96869 h -0.62 L 3214.35,6.82031 h -68.2 L 3054.39,272.18 h -0.63 c -8.67,-79.371 -14.25,-171.739 -15.49,-265.35969 h -78.74 C 2963.25,124.621 2974.41,244.281 2993,361.461 h 108.51 L 3187.07,124 h 0.62 l 89.28,237.461 h 104.16 c 16.12,-117.18 27.28,-236.84 32.86,-354.64069 h -85.56" />
        <path
           inkscape:connector-curvature="0"
           id="path42"
           style="fill:#797677;fill-opacity:1;fill-rule:nonzero;stroke:none"
           d="M 2293.37,608.082 V 863.16 L 2038.31,608.082 Z M 1159.51,1741.95 v -498.01 l 497.99,498.01 z m 878.76,0 -878.76,-878.798 v -255.07 h 498.01 l 635.85,635.868 v 498 h -255.1" />
      </g>
    </g>
  </g>
</svg>

<?xml version="1.0" encoding="UTF-8" standalone="no"?>
<svg id="svg8" xmlns:rdf="http://www.w3.org/1999/02/22-rdf-syntax-ns#" xmlns="http://www.w3.org/2000/svg" height="61.452mm" width="120.91mm" version="1.1" xmlns:cc="http://creativecommons.org/ns#" xmlns:dc="http://purl.org/dc/elements/1.1/" viewBox="0 0 120.90505 61.452126">
 <metadata id="metadata5">
  <rdf:RDF>
   <cc:Work rdf:about="">
    <dc:format>image/svg+xml</dc:format>
    <dc:type rdf:resource="http://purl.org/dc/dcmitype/StillImage"/>
    <dc:title/>
   </cc:Work>
  </rdf:RDF>
 </metadata>
 <g id="layer1" transform="translate(-72.845 -82.941)">
  <g id="g18" transform="matrix(.35278 0 0 -.35278 72.845 144.39)">
   <g id="g20" transform="scale(.1)">
    <path id="path22" d="m1159.5 608.08v255.07l-255.05-255.07zm-1012.4 757.32 255.12 255.1-121.44 121.5h-255.12v-255.12l0.0079 0.01zm757.31 376.6-878.75-878.85v-255.07h255.12l-0.004 0.008 311.82 311.81 121.44-121.45 255.12 255.12-121.45 121.46 311.82 311.8v255.12h-255.1" fill="#80cc28"/>
    <path id="path24" d="m2791.4 1742h-497.99l249-249zm380.76 0-878.76-878.8v-255.07h255.12l439.38 439.38 439.36-439.38h0.01v1133.9zm-878.76 0v-0.01l0.01 0.01z" fill="#0f80cc"/>
    <path id="path26" d="m155.62 0c-103.54 0-155.62 53.32-155.62 177.32 0 132.06 75.641 190.96 168.02 190.96 52.7 0 92.375-21.082 122.14-52.082l-29.14-36.578c-26.04 14.879-54.559 24.18-81.84 24.18-55.801 0-94.86-40.922-94.86-114.7 0-96.731 36.578-124.63 84.325-124.63 21.078 0 38.433 5.5898 48.359 12.41v81.223h-50.223v53.32h130.82v-163.68c-37.2-30.381-86.8-47.74-141.98-47.74" fill="#80cc28"/>
    <path id="path28" d="m417.25 6.8203v354.64h219.48v-63.25h-137.02v-81.21h114.7v-59.52h-114.7v-86.179h139.51v-64.481h-221.97" fill="#80cc28"/>
    <path id="path30" d="m890.94 305.04c-48.355 0-83.695-31.008-83.695-114.08 0-95.48 32.238-127.1 88.039-127.1 49.598 0 84.941 31 84.941 116.56 0 91.758-32.242 124.62-89.285 124.62zm-1.85-305.04c-106.02 0-169.26 45.879-169.26 179.8 0 129.58 73.781 188.48 178.56 188.48 107.88 0 169.26-49.601 169.26-176.7 0-141.36-81.79-191.58-178.51-191.58" fill="#80cc28"/>
    <path id="path32" d="m1397.8 6.8203-157.5 249.86v-249.86h-68.82v354.64h102.92l143.22-218.86v218.86h68.2v-354.64h-88.04" fill="#797677"/>
    <path id="path34" d="m1789 305.04c-48.36 0-83.69-31.008-83.69-114.08 0-95.48 32.23-127.1 88.03-127.1 49.61 0 84.94 31 84.94 116.56 0 91.758-32.24 124.62-89.28 124.62zm-1.9-305.04c-106.02 0-169.26 45.879-169.26 179.8 0 129.58 73.78 188.48 178.56 188.48 107.88 0 169.26-49.601 169.26-176.7 0-141.36-81.9-191.58-178.6-191.58" fill="#797677"/>
    <path id="path36" d="m2274.4 6.8203h-101c-52.1 122.14-87.4 234.98-117.2 354.64h91.75c19.84-91.141 47.74-183.52 82.46-280.86h0.62c32.24 93 55.8 186 74.4 280.86h81.84c-26.7-119.04-63.3-239.94-112.9-354.64" fill="#797677"/>
    <path id="path38" d="m2653.9 0c-98.58 0-151.29 41.531-151.29 138.88v222.58h82.46v-213.28c0-63.239 24.18-88.66 75.65-88.66 47.12 0 75.64 22.32 75.64 83.692v218.25h81.21v-213.28c0-104.78-68.2-148.18-163.7-148.18" fill="#797677"/>
    <path id="path40" d="m3328.4 6.8203c-1.86 93.621-9.92 185.99-19.22 265.97h-0.62l-94.2-265.97h-68.2l-91.8 265.36h-0.63c-8.67-79.371-14.25-171.74-15.49-265.36h-78.74c3.6 117.8 14.8 237.46 33.4 354.64h108.51l85.6-237.46h0.62l89.28 237.46h104.16c16.12-117.18 27.28-236.84 32.86-354.64h-85.56" fill="#797677"/>
    <path id="path42" d="m2293.4 608.08v255.08l-255.1-255.08zm-1133.9 1133.9v-498.01l497.99 498.01zm878.76 0-878.76-878.8v-255.07h498.01l635.85 635.87v498h-255.1" fill="#797677"/>
   </g>
  </g>
 </g>
</svg>
